packages/icons/raw/imported/TypeHelp.svg

<svg width="32" height="32" viewBox="0 0 32 32" fill="none" xmlns="http://www.w3.org/2000/svg">
<g filter="url(#filter0_d_2567:568)">
<path fill-rule="evenodd" clip-rule="evenodd" d="M14.7515 19.8032H17.2255V22.1982H14.7515V19.8032Z" stroke="white" stroke-width="1.5"/>
<path fill-rule="evenodd" clip-rule="evenodd" d="M13.3148 10.8811C13.9208 10.3931 15.0448 10.0061 16.0008 10.0001C17.5148 9.99113 18.3118 10.4561 19.0268 11.1511C19.7148 11.8201 20.0308 12.5031 19.9798 13.5511C19.9388 14.4041 19.7128 14.8991 19.3758 15.3621C19.1778 15.6431 18.7988 16.0031 18.2378 16.4401L17.7048 16.8701C17.3748 17.1901 17.2308 17.3331 17.1048 17.6901C17.0108 17.9561 16.9888 18.1961 16.9838 18.6121H15.0068C15.0038 17.5961 14.9878 17.2371 15.0968 16.7991C15.2038 16.3731 15.5988 16.0651 16.1598 15.6281L16.7278 15.1821C16.9158 15.0421 17.2218 14.7681 17.3358 14.6011C17.5438 14.3151 17.6698 13.9191 17.6868 13.5761C17.7028 13.2531 17.6058 12.8771 17.3428 12.5491C17.0308 12.1591 16.6398 11.9111 15.8778 11.9451C15.2768 11.9721 14.8168 12.2781 14.5358 12.5671C14.2058 12.9071 14.0618 13.4711 14.0378 13.9171H12.0608C12.1228 12.4331 12.4148 11.6051 13.3148 10.8811V10.8811Z" stroke="white" stroke-width="2"/>
<path d="M15.0125 19.9561H16.9915V21.9401H15.0125V19.9561Z" fill="black"/>
<path d="M13.515 10.8609C14.212 10.4119 14.857 10.0669 15.941 10.0669C17.558 10.0669 17.924 10.3089 18.753 10.9709C19.503 11.5699 19.96 12.3469 19.96 13.4509C19.96 14.1279 19.596 14.8589 19.258 15.3219C19.061 15.6029 18.799 15.8819 18.238 16.3199L17.626 16.7899C17.326 17.0239 17.028 17.3779 16.929 17.6899C16.867 17.8879 16.871 18.3129 16.867 18.7289H15.007C15.038 17.8489 15.041 17.1239 15.176 16.7879C15.311 16.4519 15.659 16.0649 16.22 15.6279L16.767 15.1819C16.954 15.0419 17.242 14.8279 17.356 14.6609C17.564 14.3749 17.745 13.9599 17.745 13.6159C17.745 13.2199 17.767 12.9399 17.536 12.6139C17.266 12.2359 17.02 11.8199 15.858 11.7999C14.953 11.7839 14.567 12.2469 14.316 12.6469C14.064 13.0489 13.978 13.5049 13.978 13.9369H12C12.063 12.4529 12.541 11.4809 13.515 10.8609Z" fill="black"/>
</g>
<defs>
<filter id="filter0_d_2567:568" x="-2" y="0" width="36" height="36" filterUnits="userSpaceOnUse" color-interpolation-filters="sRGB">
<feFlood flood-opacity="0" result="BackgroundImageFix"/>
<feColorMatrix in="SourceAlpha" type="matrix" values="0 0 0 0 0 0 0 0 0 0 0 0 0 0 0 0 0 0 127 0" result="hardAlpha"/>
<feOffset dy="2"/>
<feGaussianBlur stdDeviation="1"/>
<feColorMatrix type="matrix" values="0 0 0 0 0 0 0 0 0 0 0 0 0 0 0 0 0 0 0.25 0"/>
<feBlend mode="normal" in2="BackgroundImageFix" result="effect1_dropShadow_2567:568"/>
<feBlend mode="normal" in="SourceGraphic" in2="effect1_dropShadow_2567:568" result="shape"/>
</filter>
</defs>
</svg>

<svg width="32" height="32" fill="none" xmlns="http://www.w3.org/2000/svg"><g filter="url(#a)"><path clip-rule="evenodd" d="M14.752 19.803h2.473v2.395h-2.474v-2.395Z" stroke="#fff" stroke-width="1.5"/><path clip-rule="evenodd" d="M13.315 10.881c.606-.488 1.73-.875 2.686-.88 1.514-.01 2.31.455 3.026 1.15.688.67 1.004 1.352.953 2.4-.041.853-.267 1.348-.604 1.811-.198.281-.577.641-1.138 1.078l-.533.43c-.33.32-.474.463-.6.82-.094.266-.116.506-.121.922h-1.977c-.003-1.016-.02-1.375.09-1.813.107-.426.502-.734 1.063-1.17l.568-.447c.188-.14.494-.414.608-.58.208-.287.334-.683.35-1.026a1.53 1.53 0 0 0-.343-1.027c-.312-.39-.703-.638-1.465-.604a2.014 2.014 0 0 0-1.342.622c-.33.34-.474.904-.498 1.35H12.06c.062-1.484.354-2.312 1.254-3.036Z" stroke="#fff" stroke-width="2"/><path d="M15.012 19.956h1.98v1.984h-1.98v-1.984ZM13.515 10.86c.697-.448 1.342-.793 2.426-.793 1.617 0 1.983.242 2.812.904.75.599 1.207 1.376 1.207 2.48 0 .677-.364 1.408-.702 1.87-.197.282-.459.56-1.02.999l-.612.47c-.3.234-.598.588-.697.9-.062.198-.058.623-.062 1.039h-1.86c.031-.88.034-1.605.169-1.941.135-.336.483-.723 1.044-1.16l.547-.446c.187-.14.475-.354.589-.521.208-.286.389-.701.389-1.045 0-.396.022-.676-.209-1.002-.27-.378-.516-.794-1.678-.814-.905-.016-1.291.447-1.542.847-.252.402-.338.858-.338 1.29H12c.063-1.484.541-2.456 1.515-3.076Z" fill="#000"/></g><defs><filter id="a" x="-2" y="0" width="36" height="36" filterUnits="userSpaceOnUse" color-interpolation-filters="sRGB"><feFlood flood-opacity="0" result="BackgroundImageFix"/><feColorMatrix in="SourceAlpha" values="0 0 0 0 0 0 0 0 0 0 0 0 0 0 0 0 0 0 127 0" result="hardAlpha"/><feOffset dy="2"/><feGaussianBlur stdDeviation="1"/><feColorMatrix values="0 0 0 0 0 0 0 0 0 0 0 0 0 0 0 0 0 0 0.25 0"/><feBlend in2="BackgroundImageFix" result="effect1_dropShadow_2567:568"/><feBlend in="SourceGraphic" in2="effect1_dropShadow_2567:568" result="shape"/></filter></defs></svg>
